X:4
T:Bread and Pickles
C:Bob McQuillen
S:Bernie Waugh
R:Jig
M:6/8
L:1/8
K:Am
|:A|\
"Am"EAB cBA|"Dm"def fed|"G"ega ged|"C"ded "E"~B2E|
"Am"EAB cBA|"Dm"def fed|"C"efe "E"edc|dcB "Am"A2:|
|:e|\
"Am"{e}a2e "D"a2e|"Am"aed cBA|"F"{e}a2e a2e|"G"gag ~geg|
"Am"{e}a2e "D"a2e|"Am"aed cBA|"F"EAB "C"e2d|"G"cBG "Am"A2:|

